img/home/icons/icon-2.svg

<svg height="59" viewBox="0 0 59 59" width="59" xmlns="http://www.w3.org/2000/svg" xmlns:xlink="http://www.w3.org/1999/xlink"><mask id="a" fill="#fff"><path d="m0 0h59v59h-59z" fill="#fff" fill-rule="evenodd"/></mask><path d="m51.837394 19.4499379-6.1447895-6.142235-6.1447895-6.14474819 4.1551678-4.06801597 12.1136546 12.20237246zm1.0379542 21.2925786-11.5113228-11.5112454-5.7954538 4.7574676 14.4517742 9.1756547c.5755242.2898545 1.1803692.3761407 1.8170482.2588585.633328-.1172822 1.0815164-.4758306 1.3412144-1.0806715.2588603-.6056786.1566566-1.1367993-.3032602-1.6000639zm-11.0782136-19.4730295c.5219092-.5780336.7656902-1.2699984.738045-2.0792454-.0309962-.8058961-.3334187-1.4702158-.9114562-1.9896083-.5746865-.5185547-1.2700069-.7631718-2.0759084-.7355268-.8100902.0318338-1.4710635.3342542-1.9896217.9089369l-16.5276826 20.1675075.1725735.2596962.1725735.1725724zm-16.7882183 2.3355907 4.7608505-5.7987657-11.5113227-11.50789446c-.4632677-.46326458-.9952297-.60819184-1.6000747-.43226858-.6056828.17257234-.9667467.58976179-1.0815165 1.25408153-.117283.66431974 0 1.31272261.3459847 1.94604635zm-1.7299237 24.3167833-12.289579-12.2032102c-.5780375-.5746826-1.25492771-.8653749-2.03318394-.8653749s-1.45849741.2906923-2.03569713.8653749l16.35846007 16.361701c.5746865-.5813845.864543-1.2733494.864543-2.0825964 0-.8033828-.2898565-1.4953477-.864543-2.0758944zm35.3951604-3.9792166c-.4046263 1.3286394-1.0965957 2.4403069-2.0759085 3.329976-.9826637.8963709-2.1379008 1.4894836-3.4631983 1.773474-2.0206179.4079744-3.9515981.0871239-5.7988048-.9516611l-16.5285203-10.2069-5.1931221 4.1517889 1.8162105 1.817036c.8092524.809247 1.4434181 1.7416403 1.9066858 2.8114212.4599168 1.0689433.6919695 2.1806107.6919695 3.329976 0 1.1552295-.2320527 2.2677346-.6919695 3.3366779-.4632677 1.0689432-1.0974334 2.0013365-1.9066858 2.8114212l-1.9896217 1.9896083c-.5771997.5746827-1.25409.8645372-2.0331839.8645372-.7774185 0-1.4576597-.2898545-2.0323462-.8645372l-20.51027698-20.3342157c-.57803746-.5813845-.86538072-1.2607834-.86538072-2.0390343 0-.7790888.28734326-1.4526235.86538072-2.0331703l1.98962168-2.0758945c.8059015-.809247 1.74500294-1.4400575 2.81144016-1.9033221 1.06895043-.4632646 2.17727443-.6919648 3.33334935-.6919648 1.15188619 0 2.26104799.2287002 3.32999839.6919648s2.0047009 1.0940751 2.8147911 1.9033221l1.8162105 1.8161983 4.2422923-5.1034501-10.2136706-16.4446362c-1.09659571-1.9033221-1.44258045-3.92057548-1.03795423-6.05511104.28734323-1.32863948.87710903-2.4813557 1.77264823-3.46317504.8938637-.98014388 1.9896217-1.67127097 3.2906248-2.0767322 1.2976522-.4046235 2.5953044-.43226859 3.8921189-.08628617 1.2976522.34598241 2.4386479.97930615 3.4204738 1.90332213l11.1619871 11.16442522c1.0379542-1.2138705 2.3389574-2.0784077 3.8954699-2.5978002 1.5573501-.5185547 3.1297796-.5897618 4.718126-.2161343 1.5841577.3769785 2.9530174 1.1401503 4.1082546 2.2920288 1.152724 1.1560671 1.9184142 2.5274308 2.2928819 4.1124157.376981 1.5883357.3024225 3.1607545-.2161357 4.7172565-.519396 1.5573397-1.3847767 2.8549832-2.5953044 3.8895795l11.1645003 11.2515491c.921509.9273669 1.5581879 2.0390344 1.9041726 3.3366779.3459848 1.2976435.3149886 2.582721-.0871244 3.8493685z" fill="#ff5722" fill-rule="evenodd" mask="url(#a)"/></svg>

<?xml version="1.0" encoding="UTF-8"?>
<svg width="59px" height="59px" viewBox="0 0 59 59" version="1.1" xmlns="http://www.w3.org/2000/svg" xmlns:xlink="http://www.w3.org/1999/xlink">
    <!-- Generator: Sketch 51.3 (57544) - http://www.bohemiancoding.com/sketch -->
    <title>icon-2</title>
    <desc>Created with Sketch.</desc>
    <defs>
        <polygon id="path-1" points="0 0 59 0 59 59 0 59"></polygon>
    </defs>
    <g id="Home-&amp;-Quote" stroke="none" stroke-width="1" fill="none" fill-rule="evenodd">
        <g id="TT-Home-01" transform="translate(-537.000000, -4956.000000)">
            <g id="icon-2" transform="translate(537.000000, 4956.000000)">
                <mask id="mask-2" fill="white">
                    <use xlink:href="#path-1"></use>
                </mask>
                <g id="Clip-2"></g>
                <path d="M51.837394,19.4499379 L45.6926045,13.3077029 L39.547815,7.16295471 L43.7029828,3.09493874 L55.8166374,15.2973112 L51.837394,19.4499379 Z M52.8753482,40.7425165 L41.3640254,29.2312711 L35.5685716,33.9887387 L50.0203458,43.1643934 C50.59587,43.4542479 51.200715,43.5405341 51.837394,43.4232519 C52.470722,43.3059697 52.9189104,42.9474213 53.1786084,42.3425804 C53.4374687,41.7369018 53.335265,41.2057811 52.8753482,40.7425165 Z M41.7971346,21.269487 C42.3190438,20.6914534 42.5628248,19.9994886 42.5351796,19.1902416 C42.5041834,18.3843455 42.2017609,17.7200258 41.6237234,17.2006333 C41.0490369,16.6820786 40.3537165,16.4374615 39.547815,16.4651065 C38.7377248,16.4969403 38.0767515,16.7993607 37.5581933,17.3740434 L21.0305107,37.5415509 L21.2030842,37.8012471 L21.3756577,37.9738195 L41.7971346,21.269487 Z M25.0089163,23.6050777 L29.7697668,17.806312 L18.2584441,6.29841754 C17.7951764,5.83515296 17.2632144,5.6902257 16.6583694,5.86614896 C16.0526866,6.0387213 15.6916227,6.45591075 15.5768529,7.12023049 C15.4595699,7.78455023 15.5768529,8.4329531 15.9228376,9.06627684 L25.0089163,23.6050777 Z M23.2789926,47.921861 L10.9894136,35.7186508 C10.4113761,35.1439682 9.73448589,34.8532759 8.95622966,34.8532759 C8.17797343,34.8532759 7.49773225,35.1439682 6.92053253,35.7186508 L23.2789926,52.0803518 C23.8536791,51.4989673 24.1435356,50.8070024 24.1435356,49.9977554 C24.1435356,49.1943726 23.8536791,48.5024077 23.2789926,47.921861 Z M58.674153,43.9426444 C58.2695267,45.2712838 57.5775573,46.3829513 56.5982445,47.2726204 C55.6155808,48.1689913 54.4603437,48.762104 53.1350462,49.0460944 C51.1144283,49.4540688 49.1834481,49.1332183 47.3362414,48.0944333 L30.8077211,37.8875333 L25.614599,42.0393222 L27.4308095,43.8563582 C28.2400619,44.6656052 28.8742276,45.5979985 29.3374953,46.6677794 C29.7974121,47.7367227 30.0294648,48.8483901 30.0294648,49.9977554 C30.0294648,51.1529849 29.7974121,52.26549 29.3374953,53.3344333 C28.8742276,54.4033765 28.2400619,55.3357698 27.4308095,56.1458545 L25.4411878,58.1354628 C24.8639881,58.7101455 24.1870978,59 23.4080039,59 C22.6305854,59 21.9503442,58.7101455 21.3756577,58.1354628 L0.865380717,37.8012471 C0.287343258,37.2198626 0,36.5404637 0,35.7622128 C0,34.983124 0.287343258,34.3095893 0.865380717,33.7290425 L2.8550024,31.653148 C3.6609039,30.843901 4.60000534,30.2130905 5.66644256,29.7498259 C6.73539299,29.2865613 7.84371699,29.0578611 8.99979191,29.0578611 C10.1516781,29.0578611 11.2608399,29.2865613 12.3297903,29.7498259 C13.3987407,30.2130905 14.3344912,30.843901 15.1445814,31.653148 L16.9607919,33.4693463 L21.2030842,28.3658962 L10.9894136,11.92126 C9.89281789,10.0179379 9.54683315,8.00068452 9.95145937,5.86614896 C10.2388026,4.53750948 10.8285684,3.38479326 11.7241076,2.40297392 C12.6179713,1.42283004 13.7137293,0.731702946 15.0147324,0.326241717 C16.3123846,-0.0783817823 17.6100368,-0.106026866 18.9068513,0.239955546 C20.2045035,0.585937958 21.3454992,1.2192617 22.3273251,2.14327768 L33.4893122,13.3077029 C34.5272664,12.0938324 35.8282696,11.2292952 37.3847821,10.7099027 C38.9421322,10.191348 40.5145617,10.1201409 42.1029081,10.4937684 C43.6870658,10.8707469 45.0559255,11.6339187 46.2111627,12.7857972 C47.3638867,13.9418643 48.1295769,15.313228 48.5040446,16.8982129 C48.8810256,18.4865486 48.8064671,20.0589674 48.2879089,21.6154694 C47.7685129,23.1728091 46.9031322,24.4704526 45.6926045,25.5050489 L56.8571048,36.756598 C57.7786138,37.6839649 58.4152927,38.7956324 58.7612774,40.0932759 C59.1072622,41.3909194 59.076266,42.6759969 58.674153,43.9426444 Z" id="Fill-1" fill="#FF5722" mask="url(#mask-2)"></path>
            </g>
        </g>
    </g>
</svg>
